src/images/socialIcons/fb_icon.svg

<svg width="9" height="18" viewBox="0 0 9 18" fill="none" xmlns="http://www.w3.org/2000/svg">
<path d="M5.84172 17.9999V9.78924H8.4952L8.89246 6.58941H5.84172V4.54642C5.84172 3.62001 6.08943 2.98861 7.3686 2.98861L9 2.98783V0.125949C8.71772 0.087095 7.74938 0 6.62277 0C4.27065 0 2.66034 1.49113 2.66034 4.22968V6.5895H0V9.78933H2.66026V18L5.84172 17.9999Z" fill="#3C5A9A"/>
</svg>

<svg width="9" height="18" fill="none" xmlns="http://www.w3.org/2000/svg"><path d="M5.842 18V9.79h2.653l.397-3.2h-3.05V4.545c0-.926.247-1.557 1.527-1.557L9 2.988V.126A21.06 21.06 0 0 0 6.623 0C4.27 0 2.66 1.491 2.66 4.23v2.36H0v3.2h2.66V18h3.182z" fill="#3C5A9A"/></svg>
